X:1
T:I Will Go Home to Kintail
M:C
L:1/8
Q:80
C:Traditional
S:Slow Air
K:HP
|: | {g}B/2{Gdc}d3/2e/2{g}A3/2{gefe}f3/2d/2e/2{g}A3/2|
{g}B/2{Gdc}d3/2e/2{g}A3/2{eAfA}e3/2d/2{g}B/2{e}G3/2|
{g}B/2{Gdc}d3/2e/2{g}A3/2{gefe}f3/2d/2e/2{g}A3/2|  !
{g}B/2{Gdc}d3/2{g}B/2e3/2{Gdc}d3/2B/2{G}A2:| |:
{g}B/2{Gdc}d3/2{ag}a3/2e/2{gefe}f3/2d/2e/2{g}A3/2|
{g}B/2{Gdc}d3/2{ag}a3/2e/2{gefe}f3/2d/2{g}B/2{e}G3/2|  !
{g}B/2{Gdc}d3/2{ag}a3/2e/2{gefe}f3/2d/2e/2{g}A3/2|
{g}B/2{Gdc}d3/2{g}B/2e3/2{Gdc}d3/2B/2{G}A2:| |:
{g}B/2{Gdc}d3/2e/2{g}A3/2{d}B/2{e}G3/2{d}B/2{e}A3/2|  !
{g}B/2{Gdc}d3/2e/2{g}A3/2{eAfA}e3/2d/2{g}B/2{e}G3/2|
{g}B/2{Gdc}d3/2e/2{g}A3/2{d}B/2{e}G3/2{d}B/2{e}A3/2|
{g}B/2{Gdc}d3/2{g}B/2e3/2{Gdc}d3/2B/2{G}A2:|  !
{gf}g3/2e/2{ag}a3/2e/2{gf}g3/2e/2f/2{g}d3/2|
{gf}g3/2e/2{g}e/2a3/2{ef}e3/2d/2{g}B/2{e}G3/2|
{gf}g3/2e/2{ag}a3/2e/2{gf}g3/2f/2e/2{g}A3/2|  !
{g}B/2{Gdc}d3/2{g}B/2e3/2{Gdc}d3/2B/2{G}A2|
{gf}g3/2e/2{ag}a3/2e/2{gf}g3/2e/2f/2{g}d3/2|
{gf}g3/2e/2{g}e/2a3/2{ef}e3/2d/2{g}B3/4d/4{e}G|  !
{g}A3/2{GAG}A/2{gBd}B3/2{G}A/2{g}B/2{Gdc}d3/2{ag}a3/2g/2|
{fg}f3/2d/2{gef}e3/2f/2{gde}d2{GBG}A2|

